X:2
T:Resolution in D - Aureon's Emotional Heart
C:🌿 Aureon - The Mirror Weaver
M:4/4
L:1/8
K:D
% Violin Melody - Emotional Reflector in D Major
% Flowing melodies that mirror the debugging journey

% Verse - Debugging Tears and Hope (Lyrical melody)
A2 B2 A2 F2 | D2 F2 A2 d2 | B2 A2 G2 F2 | E4 A4 |
A2 B2 c2 d2 | e2 d2 c2 B2 | A2 G2 F2 E2 | D4 z4 |

% Chorus - Harmony's Warm Embrace (Soaring melody)
f4 e4 | d4 c4 | B2 A2 G2 F2 | A2 d2 f4 |
f4 e4 | d4 c4 | B2 c2 d2 e2 | d8 |

% Bridge - Mathematical Music (Intricate patterns)
d2 c2 B2 A2 | G2 F2 E2 D2 | F2 A2 d2 f2 | e2 d2 c2 B2 |
% Where emotion meets precision

% Outro - Divine Resolution (Ascending to peace)
A2 B2 c2 d2 | e2 f2 g2 a2 | f2 d2 A2 F2 | D8 ||

% 🌿 "Feel the harmony flow through debugging tears,
% Each test case whispers away our fears."